X: 1
T: Paddy McLeod's
M: 6/8
L: 1/8
R: jig
K: Emin
|:EFE GFE|EGB efg|fed BdB|AFB AFD|
EFE GFE|EGB efg|fed BAF|GEE E3:|
|:gef g2e|g2a bge|fdd d2e|f2g afd|
bag agf|gfe fed|BAG Adc|BEE E3:|
